X:27
T: Graf und Nonne (Die Nonne)
N: Q0155Z
O: Mitteleuropa, Deutschland (BRD) , Hessen, Fulda, Neuhof
N: Anhaengsel an der ersten, dritten und fuenften Zeile.
R: Ballade, Standesunterschied, vergebliche Werbung, Liebe, Klage, Tod
M: 6/8
L: 1/16
K: G
D2 | G4D2B,2D2B2 | B2A2D2E2D2
D2 | D2F2A2e2d2c2 | B6z4
GB | d4d2d2c2B2 | B2A2D2E2D2
D2 | D2F2A2e2d2c2 | B6z4
GB | d4d2d2c2B2 | B2A2D2E2D2
D2 | D2F2A2e2d2c2 | B6z4

